X:634
T: Qingzhu chengli suweiai
N: C2157
O: China, Hubei Yangxing
S: I, 408]
R: Xiaodiao]
M: 2/4
L: 1/16
K: Eb
BGB4Bc | f4dfdc | Bcd2cBG2 | B2B2z4
c2Bcd2cd | BcBGF4 | FGB2GFD2 | F2F2z2FG | FGB2GFD2 | F2F2z4
FGFGB2B2 | FGFGB2B2 | FGB2GBGF | B3cG2F2 | E8- | E8

